packages/icons/general/Retweet.light.svg

<svg width="24" height="24" viewBox="0 0 24 24" xmlns="http://www.w3.org/2000/svg">

    <g fill="none">
        <path
            d="M23.77 15.6699C23.478 15.3769 23.003 15.3769 22.71 15.6699L20.49 17.8899V7.64991C20.49 5.58191 18.807 3.89991 16.74 3.89991H10.89C10.476 3.89991 10.14 4.23591 10.14 4.64991C10.14 5.06391 10.476 5.39991 10.89 5.39991H16.74C17.98 5.39991 18.99 6.40991 18.99 7.64991V17.8899L16.77 15.6699C16.477 15.3769 16.002 15.3769 15.71 15.6699C15.418 15.9629 15.416 16.4379 15.71 16.7299L19.21 20.2299C19.355 20.3769 19.547 20.4499 19.74 20.4499C19.933 20.4499 20.123 20.3779 20.27 20.2299L23.77 16.7299C24.064 16.4379 24.064 15.9629 23.77 15.6699ZM13.11 18.9499H7.26001C6.02001 18.9499 5.01001 17.9399 5.01001 16.6999V6.45991L7.23001 8.67991C7.37801 8.82691 7.57001 8.89991 7.76201 8.89991C7.95401 8.89991 8.146 8.82691 8.292 8.67991C8.585 8.38691 8.585 7.91191 8.292 7.61991L4.79201 4.11991C4.499 3.82591 4.02401 3.82591 3.73201 4.11991L0.232005 7.61991C-0.0619949 7.91191 -0.0619949 8.38691 0.232005 8.67991C0.526005 8.97291 0.999005 8.97291 1.29201 8.67991L3.51201 6.45991V16.6999C3.51201 18.7679 5.19501 20.4499 7.26201 20.4499H13.112C13.526 20.4499 13.862 20.1139 13.862 19.6999C13.862 19.2859 13.525 18.9499 13.112 18.9499H13.11Z"
            fill="#0F1419"
        />
    </g>
</svg>

<svg xmlns="http://www.w3.org/2000/svg" width="24" height="24">
    <path fill="#0F1419" d="M23.77 15.67a.749.749 0 0 0-1.06 0l-2.22 2.22V7.65a3.755 3.755 0 0 0-3.75-3.75h-5.85a.75.75 0 0 0 0 1.5h5.85c1.24 0 2.25 1.01 2.25 2.25v10.24l-2.22-2.22a.749.749 0 1 0-1.06 1.06l3.5 3.5a.74.74 0 0 0 .53.22.74.74 0 0 0 .53-.22l3.5-3.5a.747.747 0 0 0 0-1.06Zm-10.66 3.28H7.26c-1.24 0-2.25-1.01-2.25-2.25V6.46l2.22 2.22a.752.752 0 0 0 1.062 0 .749.749 0 0 0 0-1.06l-3.5-3.5a.747.747 0 0 0-1.06 0l-3.5 3.5a.749.749 0 1 0 1.06 1.06l2.22-2.22V16.7a3.755 3.755 0 0 0 3.75 3.75h5.85a.75.75 0 0 0 0-1.5h-.002Z"/>
</svg>
